X:311
T:Patrick O Hilly. RH.311
R:jig
S:Rev.R.Harrison’s MS,c1815,Cumbria
N:I introduced the 1st and 2nd time bar markings, and
N:added the introductory rest. PJH.
O:England
A:Temple Sowerby,Cumbria
Z:vmp.Simon Wilson. Review PJH, 2008.
M:6/8
L:1/8
Q:3/8=120
K:D
z|:Add Fdd|ede fdB|ABc dAF|FEE E2z|\
Add Fdd|ede fdB|ABA Aaa|gec d3:|!
|:afd dcd|fdd eAA|afd dcd|fee efg|\
afd dcd|fdd ecA|A>BA Aaa|1 gec d3:|2 gec d2||!
|:(A/G/)|(FD)D. (AF)F.|(dA)A. fdd|\
a>ba gfd|fee e2(A/G/)|\
(FD)D. (AF)F.|(dA)A. edd|A>BA Aaa|gec d2:|

